src/Icon/svgs/ListNumber.svg

<svg xmlns="http://www.w3.org/2000/svg" width="24" height="24" fill="none"><path fill-rule="evenodd" d="M1 17h2v.5H2v1h1v.5H1v1h3v-4H1v1zm1-9h1V4H1v1h1v3zm-1 3h1.8L1 13.1v.9h3v-1H2.2L4 10.9V10H1v1zm5-6v2h16V5H6zm0 14h16v-2H6v2zm0-6h16v-2H6v2z" fill="#1B1C1D"/></svg>

<svg width="24" height="24" viewBox="0 0 24 24" fill="none" xmlns="http://www.w3.org/2000/svg">
<path fill-rule="evenodd" clip-rule="evenodd" d="M1 17H3V17.5H2V18.5H3V19H1V20H4V16H1V17ZM2 8H3V4H1V5H2V8ZM1 11H2.8L1 13.1V14H4V13L2.2 13L4 10.9V10H1V11ZM6 5V7H22V5H6ZM6 19H22V17H6V19ZM6 13H22V11H6V13Z" fill="#1B1C1D"/>
</svg>
